app/dist/common/images/challenger-limited.svg

<svg height="18" viewBox="0 0 18 18" width="18" xmlns="http://www.w3.org/2000/svg"><path d="m0 0h18v18h-18z" fill="#f0f3fa"/><path d="m6.7 14.55.54-1.3 1.76 1.75h-.08c-.86 0-1.6-.19-2.22-.45z" fill="#1e779f"/><path d="m11.49 6.51 1.75-.4v1.13z" fill="#539ac8"/><path d="m9 12.52 1.75.73-1.75 1.75z" fill="#005480"/><path d="m10.75 13.25-.18 1.54c-.5.14-1.03.2-1.57.2z" fill="#0073ad"/><path d="m10.76 13.25h2.48c-.55.55-1.21 1-1.95 1.3zm-4.06-9.8c.71-.29 1.48-.45 2.3-.45l-1.76 1.76-.54-1.3z" fill="#268cc0"/><path d="m4.75 4.76c.55-.55 1.22-1 1.95-1.3l.54 1.3zm-1.3 6.54c.3.73.75 1.4 1.3 1.94v-2.48z" fill="#0073ad"/><path d="m3.45 6.7.02.01 1.28.53-1.75 1.76c0-.81.16-1.59.45-2.3z" fill="#005480"/><path d="m4.75 7.24-1.1-.94a6.1 6.1 0 0 1 1.1-1.54z" fill="#1e779f"/><path d="m13.24 10.76 1.76-1.76c0 .81-.17 1.6-.46 2.31z" fill="#539ac8"/><path d="m9 3 1.32 1.32-1.32 1.18z" fill="#0073ad"/><path d="m11.3 3.45-.55 1.3-1.75.75 2.3-2.04zm-4.79 3.06-1.75-1.75v1.19z" fill="#005480"/><path d="m11.49 11.49 1.75 1.75v-2.48z" fill="#0073ad"/><path d="m3 9h2.48l-.73 1.76z" fill="#c1cc23"/><path d="m10.24 12-.77-1.85 1.84 1.77-.55 1.32z" fill="#005480"/><path d="m12 7.76 1.24-.52-1.75-.73.5 1.25z" fill="#0073ad"/><path d="m7.24 4.76.51 1.24-1.24.51z" fill="#c1cc23"/><path d="m9 12.52 1.24-.52.51 1.25z" fill="#539ac8"/><path d="m6 10.25-1.24.51 1.75.73z" fill="#0073ad"/><path d="m7.76 6 .62-.26.13 2.08z" fill="#0080b7"/><path d="m7.24 4.76 1.76.73-1.24.5z" fill="#005480"/><path d="m7.75 12 1.25.52-1.76.73z" fill="#268cc0"/><path d="m10.24 6 .51-1.24.73 1.75zm1.76 4.24 1.24.52-.73-1.76zm-6-2.48.5-1.26-1.75.73z" fill="#c1cc23"/><path d="m9 5.49 1.75-.73-.5 1.24z" fill="#268cc0"/><path d="m7.75 12-1.24-.51.73 1.75zm-1.75-1.75.51 1.24 1.37-2.03z" fill="#c1cc23"/><path d="m5.18 8.28-.43-1.04 1.25.52-.28.7-.53-.18z" fill="#005480"/><path d="m5.48 9-.3-.72.53.18 1.56.54z" fill="#0080b7"/><path d="m6.51 11.49 1.24.51.8-1.9zm3.63-2.96 2.37.47-.51-1.24z" fill="#005480"/><path d="m9.5 7.8.37-.89 1.61-.4z" fill="#0073ad"/><path d="m15 9-1.76-1.76-.46 1.13z" fill="#c1cc23"/><path d="m12.77 8.37-.26.63h2.49zm-6.07 6.18a6.08 6.08 0 0 1 -1.95-1.3h2.5z" fill="#005480"/><path d="m11.3 3.46s.86.22 1.94 1.3h-1.94z" fill="#539ac8"/><path d="m14.55 6.71c-.3-.73-.75-1.4-1.3-1.95v2.49z" fill="#0073ad"/></svg>

<!-- by TradingView --><svg xmlns="http://www.w3.org/2000/svg" width="18" height="18" viewBox="0 0 18 18"><path fill="#F0F3FA" d="M0 0h18v18H0z"/><path d="m6.7 14.55.54-1.3L9 15h-.08c-.86 0-1.6-.19-2.22-.45Z" fill="#1E779F"/><path d="m11.49 6.51 1.75-.4v1.13l-1.75-.73Z" fill="#539AC8"/><path d="m9 12.52 1.75.73L9 15v-2.48Z" fill="#005480"/><path d="m10.75 13.25-.18 1.54c-.5.14-1.03.2-1.57.2l1.75-1.74Z" fill="#0073AD"/><path d="M10.76 13.25h2.48c-.55.55-1.21 1-1.95 1.3l-.53-1.3ZM6.7 3.45C7.41 3.16 8.18 3 9 3L7.24 4.76l-.54-1.3Z" fill="#268CC0"/><path d="M4.75 4.76c.55-.55 1.22-1 1.95-1.3l.54 1.3H4.75ZM3.45 11.3c.3.73.75 1.4 1.3 1.94v-2.48l-1.3.54Z" fill="#0073AD"/><path d="m3.45 6.7.02.01 1.28.53L3 9c0-.81.16-1.59.45-2.3Z" fill="#005480"/><path d="m4.75 7.24-1.1-.94a6.1 6.1 0 0 1 1.1-1.54v2.48Z" fill="#1E779F"/><path d="M13.24 10.76 15 9c0 .81-.17 1.6-.46 2.31l-1.3-.55Z" fill="#539AC8"/><path d="m9 3 1.32 1.32L9 5.5v-2.5Z" fill="#0073AD"/><path d="m11.3 3.45-.55 1.3L9 5.5l2.3-2.04ZM6.51 6.51 4.76 4.76v1.19l1.75.56Z" fill="#005480"/><path d="m11.49 11.49 1.75 1.75v-2.48l-1.75.73Z" fill="#0073AD"/><path d="M3 9h2.48l-.73 1.76L3 9Z" fill="#C1CC23"/><path d="m10.24 12-.77-1.85 1.84 1.77-.55 1.32-.52-1.24Z" fill="#005480"/><path d="m12 7.76 1.24-.52-1.75-.73.5 1.25Z" fill="#0073AD"/><path d="M7.24 4.76 7.75 6l-1.24.51.73-1.75Z" fill="#C1CC23"/><path d="m9 12.52 1.24-.52.51 1.25L9 12.52Z" fill="#539AC8"/><path d="m6 10.25-1.24.51 1.75.73L6 10.25Z" fill="#0073AD"/><path d="m7.76 6 .62-.26.13 2.08L7.76 6Z" fill="#0080B7"/><path d="M7.24 4.76 9 5.49l-1.24.5-.52-1.23Z" fill="#005480"/><path d="m7.75 12 1.25.52-1.76.73.51-1.25Z" fill="#268CC0"/><path d="m10.24 6 .51-1.24.73 1.75L10.24 6ZM12 10.24l1.24.52L12.51 9 12 10.24ZM6 7.76 6.5 6.5l-1.75.73L6 7.76Z" fill="#C1CC23"/><path d="m9 5.49 1.75-.73-.5 1.24L9 5.49Z" fill="#268CC0"/><path d="m7.75 12-1.24-.51.73 1.75.51-1.24ZM6 10.25l.51 1.24 1.37-2.03-1.88.79Z" fill="#C1CC23"/><path d="m5.18 8.28-.43-1.04L6 7.76l-.28.7-.53-.18Z" fill="#005480"/><path d="m5.48 9-.3-.72.53.18L7.27 9H5.48Z" fill="#0080B7"/><path d="m6.51 11.49 1.24.51.8-1.9-2.04 1.39ZM10.14 8.53l2.37.47L12 7.76l-1.86.77Z" fill="#005480"/><path d="m9.5 7.8.37-.89 1.61-.4L9.5 7.8Z" fill="#0073AD"/><path d="m15 9-1.76-1.76-.46 1.13L15 9Z" fill="#C1CC23"/><path d="m12.77 8.37-.26.63H15l-2.23-.63ZM6.7 14.55a6.08 6.08 0 0 1-1.95-1.3h2.5l-.55 1.3Z" fill="#005480"/><path d="M11.3 3.46s.86.22 1.94 1.3H11.3v-1.3Z" fill="#539AC8"/><path d="M14.55 6.71c-.3-.73-.75-1.4-1.3-1.95v2.49l1.3-.54Z" fill="#0073AD"/></svg>
